X: 218
T:North Skelton 2, v 1
% Nottingham Music Database
S:Trad, via EF
M:6/8
K:G
"G"ded B2d|"D7"c2B A2F|"G"GAG G2B|"D7"d3 A3|"G"ded B2g|
"C"f2e c2e|"G"ded "D7"c2A|"G"G3 G3|"G"B3 BcB|"C"e3 e3|"D7"A3 Ace|
"G"d3 "D7"d3|"G"ded B2g|"C"f2e c2e|"G"ded "D7"c2A|"G"G3 G3||<end>
<start>
